!!!SOCIAL_FUNCTION:	songs of social dance
!!!PDT:	1936
!!!OTL: No_55_Song_in_Praise_of_the_Chiefs.krn
!!!REG: Oklahoma and Montana
!!!LANG: Tone
!!!LING_GROUP: Algonquin
**kern	**kern
*staff2	*staff1
=1-	=1-
*clefF4	*clefF4
*k[b-e-a-d-]	*k[b-e-a-d-]
*M3/8	*M3/8
4.r	4e-\
.	8e-\
=2	=2
*M5/8	*M5/8
3...r	8f\L
.	16e-\Jk
.	16r
.	8f\L
.	8f\
.	8e-\J
=3	=3
*M7/8	*M7/8
2..r	8f\L
.	8e-\
.	8e-\J
.	4c\
.	4r
=4	=4
*M5/8	*M5/8
3...r	4.c\
.	4e-\
=5	=5
*M3/8	*M3/8
4.r	4e-\
.	8c\
=6!|:	=6!|:
*M7/8	*M7/8
2..r	8e-\L
.	8c\
.	8c\J
.	4B-\
.	4r
=7	=7
*M3/8	*M3/8
8GG/	4B-\
8r	.
8GG/	8B-\
=8	=8
*M5/8	*M5/8
8r	8c\L
8GG/	8c\
8r	16B-\Jk
.	16r
8GG/	8c\L
8r	8B-\J
=9	=9
*M7/8	*M7/8
8GG/	8c\L
8r	8B-\
8GG/	8B-\J
8r	4A-\
8r	.
8r	4r
8r	.
=10	=10
*M3/8	*M3/8
8GG/	4A-\
8r	.
8GG/	8A-\
=11	=11
*M5/8	*M5/8
8GG/	4B-\
8r	.
8r	8B-\L
8GG/	8B-\
8r	8A-\J
=12	=12
*M7/8	*M7/8
8GG/	8B-\L
8r	8A-\
8r	8A-\J
8GG/	4E-\
8r	.
8GG/	8E-\
8r	8r
=13	=13
*M3/4	*M3/4
2.r	8.E-\L
.	16E-\Jk
.	4E-\
.	8.Dn\L
.	16D\Jk
=14	=14
*M2/4	*M2/4
2r	8.E-\L
.	16E-\Jk
.	16E-\LK
.	8.Dn\J
=15	=15
*M3/4	*M3/4
2.r	4E-\
.	4E-\
.	8E-\
.	8r
=16	=16
*M5/8	*M5/8
3...r	16e-\LK
.	8.c\
.	8e-\
.	8.e-\
.	16c\Jk
==:|!	==:|!
*-	*-
